X:1     %Music
T:Lavender Cries
B:Broadwood, L, 1893, English County Songs, London, Leadenhall Press
Z:Lucy Broadwood
F:http://www.folkinfo.org/songs
M:3/4     %Meter
L:1/8     %
K:G
GA |B3 c B2 |AB G2 z2 |A4 FE | DG G2 z
w:Will you buy my sweet la-ven-der? Sweet bloom-ing lav-en-der?
 A |B3 d cB |AB G2 z2 || [M:C] A2 G2 F2 ED |D G3 |]
w:O buy my pret-ty la-ven-der, Six-teen bunch-es a pen-ny!